images_sukapura_svg/cmd/32/color.svg

<svg viewBox="0 0 32 32" xmlns="http://www.w3.org/2000/svg"><path d="m20.185345 20.089808h-8.712569l-1.7730845 5.196971h-3.7601614l8.1775869-22.2552636h3.515598l8.085875 22.2552636h-3.775446zm-7.642605-3.102897h6.587925l-3.225179-9.5073999h-.09171z" fill="#4b4b4f" transform="scale(1.0112021 .98892204)"/></svg>

<?xml version="1.0" encoding="UTF-8" standalone="no"?>
<svg
   xmlns:dc="http://purl.org/dc/elements/1.1/"
   xmlns:cc="http://creativecommons.org/ns#"
   xmlns:rdf="http://www.w3.org/1999/02/22-rdf-syntax-ns#"
   xmlns:svg="http://www.w3.org/2000/svg"
   xmlns="http://www.w3.org/2000/svg"
   xmlns:sodipodi="http://sodipodi.sourceforge.net/DTD/sodipodi-0.dtd"
   xmlns:inkscape="http://www.inkscape.org/namespaces/inkscape"
   viewBox="0 0 32 32"
   version="1.1"
   id="svg17154"
   sodipodi:docname="color.svg"
   inkscape:version="0.92.3 (2405546, 2018-03-11)">
  <metadata
     id="metadata17160">
    <rdf:RDF>
      <cc:Work
         rdf:about="">
        <dc:format>image/svg+xml</dc:format>
        <dc:type
           rdf:resource="http://purl.org/dc/dcmitype/StillImage" />
      </cc:Work>
    </rdf:RDF>
  </metadata>
  <defs
     id="defs17158" />
  <sodipodi:namedview
     pagecolor="#ffffff"
     bordercolor="#666666"
     borderopacity="1"
     objecttolerance="10"
     gridtolerance="10"
     guidetolerance="10"
     inkscape:pageopacity="0"
     inkscape:pageshadow="2"
     inkscape:window-width="1366"
     inkscape:window-height="716"
     id="namedview17156"
     showgrid="true"
     inkscape:zoom="10.429825"
     inkscape:cx="23.549555"
     inkscape:cy="4.4493457"
     inkscape:window-x="-8"
     inkscape:window-y="-8"
     inkscape:window-maximized="1"
     inkscape:current-layer="svg17154">
    <inkscape:grid
       type="xygrid"
       id="grid17705" />
  </sodipodi:namedview>
  <g
     aria-label="A"
     transform="scale(1.0112021,0.98892204)"
     style="font-style:normal;font-weight:normal;font-size:31.30410767px;line-height:1.25;font-family:sans-serif;letter-spacing:0px;word-spacing:0px;fill:#4b4b4f;fill-opacity:1;stroke:none;stroke-width:0.78260273"
     id="text14271">
    <path
       d="M 20.185345,20.089808 H 11.472776 L 9.6996915,25.286779 H 5.9395301 L 14.117117,3.0315154 h 3.515598 L 25.71859,25.286779 H 21.943144 Z M 12.54274,16.986911 h 6.587925 L 15.905486,7.4795111 h -0.09171 z"
       style="font-style:normal;font-variant:normal;font-weight:500;font-stretch:normal;font-family:Roboto;-inkscape-font-specification:'Roboto Medium';fill:#4b4b4f;fill-opacity:1;stroke-width:0.78260273"
       id="path17715" />
  </g>
</svg>
